gdscript/src/main/resources/icons/godot_editor/ControlLayout.svg

<svg clip-rule="evenodd" fill-rule="evenodd" stroke-linejoin="round" stroke-miterlimit="2" viewBox="0 0 16 16" xmlns="http://www.w3.org/2000/svg"><g fill-rule="nonzero"><path d="m11.793 8v-2h-3.793v-2.113h-2v2.113h-2.142v2h2.142v3.967h2v-3.967z" fill="#d6d6d6"/><path d="m8 .345c-4.199 0-7.655 3.456-7.655 7.655s3.456 7.655 7.655 7.655 7.655-3.456 7.655-7.655-3.456-7.655-7.655-7.655zm0 1.999c3.103 0 5.656 2.553 5.656 5.656s-2.553 5.656-5.656 5.656-5.656-2.553-5.656-5.656 2.553-5.656 5.656-5.656z" fill="#8eef97"/></g></svg>

<svg height="16" width="16" viewBox="0 0 16 16" xmlns="http://www.w3.org/2000/svg"><path d="M11.793 8V6H8V3.887H6V6H3.858v2H6v3.967h2V8z" fill="#d6d6d6"/><path d="M8 .5a7.5 7.5 0 0 0 0 15 7.5 7.5 0 0 0 0-15zm0 2a5.5 5.5 0 0 1 0 11 5.5 5.5 0 0 1 0-11z" fill="#8eef97"/></svg>
